svg/symbol.svg

<svg xmlns="http://www.w3.org/2000/svg" viewBox="0 0 24 24"><path d="M2 7v7h2V7zm4 0v2h4v2H8v3h2v-1c1.11 0 2-.89 2-2V9c0-1.11-.89-2-2-2zm9.8 0-.2 2H14v2h1.4l-.2 2H14v2h1l-.2 2h2l.2-2h1.4l-.2 2h2l.2-2H22v-2h-1.4l.2-2H22V9h-1l.2-2h-2L19 9h-1.4l.2-2zm1.6 4h1.4l-.2 2h-1.4zM2 15v2h2v-2zm6 0v2h2v-2z"/></svg>

<?xml version="1.0" encoding="UTF-8"?><!DOCTYPE svg PUBLIC "-//W3C//DTD SVG 1.1//EN" "http://www.w3.org/Graphics/SVG/1.1/DTD/svg11.dtd"><svg xmlns="http://www.w3.org/2000/svg" xmlns:xlink="http://www.w3.org/1999/xlink" version="1.1" id="mdi-symbol" width="24" height="24" viewBox="0 0 24 24"><path d="M2 7V14H4V7H2M6 7V9H10V11H8V14H10V13C11.11 13 12 12.11 12 11V9C12 7.89 11.11 7 10 7H6M15.8 7L15.6 9H14V11H15.4L15.2 13H14V15H15L14.8 17H16.8L17 15H18.4L18.2 17H20.2L20.4 15H22V13H20.6L20.8 11H22V9H21L21.2 7H19.2L19 9H17.6L17.8 7H15.8M17.4 11H18.8L18.6 13H17.2L17.4 11M2 15V17H4V15H2M8 15V17H10V15H8Z" /></svg>
